!!!SOCIAL_FUNCTION:	social gatherings
!!!PDT:	1939
!!!OTL: No_89_"I_Will_Not_Have_Him".krn
!!!LANG: Non-Tone
!!!LING_GROUP: Wakashan
!!!REG: Pacific Northwest
**kern	**kern
*staff2	*staff1
=1-	=1-
*clefF4	*clefF4
*k[f#]	*k[f#]
*M2/4	*M2/4
12r	4r
12GG/L	.
12GG/J	.
12r	8r
12GG/L	.
.	16r
12GG/J	.
.	16d\
=2	=2
12r	4d\
12GG/L	.
12GG/J	.
12r	12e\L
12GG/L	12d\
12GG/J	12B\J
=3||	=3||
*M3/4	*M3/4
12r	4d\
12GG/L	.
12GG/J	.
12r	12d\L
12GG/L	12B\
12GG/J	12B\J
12r	16B\LK
.	8.A#\J
12GG/L	.
12GG/J	.
=4	=4
12r	12d\L
12GG/L	12e\
12GG/J	12d\J
12r	12d\L
12GG/L	12d\
12GG/J	12B\J
12r	4B\
12GG/L	.
12GG/J	.
=5	=5
12r	12B\L
12GG/L	12B\
12GG/J	12B\J
12r	12B\L
12GG/L	12A\
12GG/J	12G\J
12r	12B\L
12GG/L	[12A\
12GG/J	12A\J]
=6||	=6||
*M2/4	*M2/4
12r	12d\L
12GG/L	12B\
12GG/J	12B\J
12r	4B\
12GG/L	.
12GG/J	.
=7	=7
12r	12B\L
12GG/L	12B\
12GG/J	12B\J
12r	12B\L
12GG/L	12A\
12GG/J	24G\Jk
.	24r
=8	=8
12r	4B\
12GG/L	.
12GG/J	.
12r	12B\L
12GG/L	12B\
12GG/J	12B\J
=9||	=9||
*M3/4	*M3/4
12r	12B\L
12GG/L	[12A#\
12GG/J	12A#\J]
12r	12A#\L
12GG/L	12A#\
12GG/J	12B\J
12r	8B\
12GG/L	.
.	16r
12GG/J	.
.	16d\
=10||	=10||
*M2/4	*M2/4
12r	4d\
12GG/L	.
12GG/J	.
12r	12e\L
12GG/L	12e\
12GG/J	12d\J
=11||	=11||
*M3/4	*M3/4
12r	4d\
12GG/L	.
12GG/J	.
12r	12d\L
12GG/L	12d\
12GG/J	12B\J
12r	12B\L
12GG/L	[12A#\
12GG/J	12A#\J]
=12	=12
12r	12d\L
12GG/L	12e\
12GG/J	12d\J
12r	12d\L
12GG/L	12d\
12GG/J	12B\J
12r	4B\
12GG/L	.
12GG/J	.
=13||	=13||
*M2/4	*M2/4
12r	12B\L
12GG/L	12B\
12GG/J	12B\J
12r	12B\L
12GG/L	12A\
12GG/J	24G\Jk
.	24r
=14	=14
12r	12B\L
12GG/L	[12A\
12GG/J	12A\J]
12r	12d\L
12GG/L	12B\
12GG/J	12B\J
=15||	=15||
*M3/4	*M3/4
12r	4B\
12GG/L	.
12GG/J	.
12r	12B\L
12GG/L	12B\
12GG/J	12B\J
12r	12B\L
12GG/L	12A\
12GG/J	12G\J
=16||	=16||
*M2/4	*M2/4
12r	4B\
12GG/L	.
12GG/J	.
12r	12B\L
12GG/L	12B\
12GG/J	12B\J
=17||	=17||
*M3/4	*M3/4
12r	8B\
12GG/L	.
.	8r
12GG/J	.
12r	12A#\L
12GG/L	12A#\
12GG/J	12B\J
12r	8B\
12GG/L	.
.	8r
12GG/J	.
=18||	=18||
*M2/4	*M2/4
12r	4d\
12GG/L	.
12GG/J	.
12r	12e\L
12GG/L	12e\
12GG/J	12e\J
=19||	=19||
*M3/4	*M3/4
12r	4d\
12GG/L	.
12GG/J	.
12r	12d\L
12GG/L	12B\
12GG/J	12d\J
12r	12B\L
12GG/L	[12A#\
12GG/J	12A#\J]
=20||	=20||
*M2/4	*M2/4
12r	4d\
12GG/L	.
12GG/J	.
12r	12d\L
12GG/L	12B\
12GG/J	12d\J
=21||	=21||
*M3/4	*M3/4
12r	4B\
12GG/L	.
12GG/J	.
12r	12B\L
12GG/L	12A\
12GG/J	12B\J
12r	12B\L
12GG/L	12A\
12GG/J	24G\Jk
.	24r
=22||	=22||
*M2/4	*M2/4
12r	8.B\L
12GG/L	.
12GG/J	.
.	16A#\Jk
12r	12B\L
12GG/L	12B\
12GG/J	12d\J
=23	=23
12r	4B\
12GG/L	.
12GG/J	.
12r	12B\L
12GG/L	12A#\
12GG/J	12B\J
=24	=24
12r	12B\L
12GG/L	12A\
12GG/J	12G\J
12r	4r
12GG/L	.
12GG/J	.
=25	=25
12r	4B\
12GG/L	.
12GG/J	.
12r	12B\L
12GG/L	12B\
12GG/J	12B\J
=26||	=26||
*M3/4	*M3/4
12r	4A#\
12GG/L	.
12GG/J	.
12r	12A#\L
12GG/L	12A#\
12GG/J	12B\J
12r	4B\
12GG/L	.
12GG/J	.
==	==
*-	*-
